X: 15
T: JIGS: Humours of Killarney Set
T: Humours of Killarney / Sheehan's / Cheer up Old Hag
C: C: Trad.; S: ThZCh + Paudie O'Connor & John O'Brien / Various / Méabh & Clíodhna Begley
C: Set Leaders: Oliushka, Anton
Z: Anton Zille ed. arr., Oleg Naumov arr.; Nigel Gatherer / JACKB / Bregolas at The Session
N: https://thesession.org/members/26966/sets/71901
R: Jig
M: 6/8
L: 1/8
Q: 3/8=116
K: Gmaj
|:"G"BGG G2 B|ded d2c|BAB GBd|"C"e2f "D"g2D|
"G"GBd gfe|"(B5)"fdB cBA|"Em"BGE EDE|"C"c3 "D"B2A:||
|:"Em"BGE EDE|"C"GED D2A|"Em"BGE EDE|"Am"c2d "D"edc|
"Em"BGE EDE|GED "D"DEF|"C"G/A/BA "D"GBA|1 "G"G3 "D"G2 A:|2 "G"G3 G3||
T: Connaughtman's Rambles
K: Dmaj
|:"D"FAA dAA|BAB dAG|FAA dfe|"G"dBB "A"BAG|
"D"FAA dAA|"G"~B3 "A"def|"G (Bm)"gfe f2e|1 "A"dBB BAG:|2 "A"dBB B2e||
|:"Bm"fbb faf|"A"fed ede|"Bm"fbb faf|"G"fed "A"e2e|
"Bm"fbb faf|"A"fed def|"G"gfe ~f2e|1 "A"dBB Bde:|2 "A"dBB BAG||
T: Donncha Lynch's / Donncha Ó Loinsigh's
K: Amaj
|:"A"EAA cAA|BAB cAF|EAA cAA|"E"B/c/dc BAF|
"A"EAA cAA|BAB cAA|"D"Bcd "E"e2d|cAA A2F:||
|:"A"E3 ECE|"D"FAA FAA|"E"Bcd e2d|cAA BAF|
"A (F#m)"~E3 ECE|"D (Bm)"FAA FAA|"(D)"Bcd "E"e2d|cAA A2F:||

